X: 30431
T: Old Torn Petticoat, The
R: hornpipe
M: 4/4
K: Adorian
ed|:"Am" (3cBA "G" (3BAG "Am" AG "Em" ED|"Am" EA AB cd ed|"Am" (3cBA "G" (3BAG "Am" AG "Em" ED|1 "Am"EA AB A2 ed:|2 "Am" EA AB A4||
|:"Am" (3ABd ef "G"gf ed|"Am" ea af "G"gf ed|"Am" (3ABd ef "G" gf ed|"Am"ea ag a4|
"Am" (3ABd ef "G" gf ed|"Am" ea af "G" gf ed|"Am" (3cBA "G" (3BAG "Am" AG "Em" ED|"Am" EA AB A4:|

